svgs/sharp-regular/plus.svg

<svg xmlns="http://www.w3.org/2000/svg" viewBox="0 0 448 512"><!--! Font Awesome Pro 6.6.0 by @fontawesome - https://fontawesome.com License - https://fontawesome.com/license (Commercial License) Copyright 2024 Fonticons, Inc. --><path d="M248 72l0-24-48 0 0 24 0 160L40 232l-24 0 0 48 24 0 160 0 0 160 0 24 48 0 0-24 0-160 160 0 24 0 0-48-24 0-160 0 0-160z"/></svg>

<svg xmlns="http://www.w3.org/2000/svg" viewBox="0 0 448 512"><!--! Font Awesome Pro 6.4.0 by @fontawesome - https://fontawesome.com License - https://fontawesome.com/license (Commercial License) Copyright 2023 Fonticons, Inc. --><path d="M248 72V48H200V72 232H40 16v48H40 200V440v24h48V440 280H408h24V232H408 248V72z"/></svg>
